icons/Netlify-Light.svg

<svg width="256" height="256" viewBox="0 0 256 256" fill="none" xmlns="http://www.w3.org/2000/svg">
<rect width="256" height="256" rx="60" fill="#F4F2ED"/>
<path d="M172.787 97.4052L172.714 97.3739C172.673 97.3583 172.631 97.3426 172.594 97.3061C172.534 97.2418 172.49 97.1647 172.465 97.0806C172.44 96.9965 172.434 96.9077 172.448 96.821L176.48 72.1699L195.389 91.0834L175.724 99.4499C175.669 99.4719 175.611 99.4826 175.552 99.4812H175.474C175.448 99.4656 175.421 99.4447 175.369 99.3925C174.637 98.5777 173.762 97.9041 172.787 97.4052V97.4052ZM200.213 95.903L220.431 116.12C224.63 120.325 226.732 122.421 227.499 124.852C227.613 125.212 227.707 125.572 227.78 125.942L179.464 105.48C179.438 105.469 179.412 105.459 179.386 105.448C179.193 105.37 178.968 105.281 178.968 105.083C178.968 104.885 179.198 104.791 179.391 104.713L179.453 104.687L200.213 95.903V95.903ZM226.956 132.431C225.913 134.392 223.879 136.427 220.436 139.874L197.642 162.663L168.161 156.524L168.004 156.493C167.743 156.451 167.467 156.404 167.467 156.169C167.355 154.953 166.994 153.773 166.406 152.702C165.818 151.632 165.016 150.694 164.05 149.947C163.93 149.827 163.962 149.639 163.998 149.467C163.998 149.441 163.998 149.415 164.009 149.394L169.553 115.354L169.574 115.239C169.606 114.978 169.652 114.676 169.887 114.676C171.075 114.528 172.222 114.145 173.261 113.549C174.3 112.954 175.21 112.158 175.938 111.207C175.985 111.155 176.016 111.097 176.079 111.066C176.246 110.988 176.444 111.066 176.616 111.139L226.951 132.431H226.956ZM192.4 167.905L154.917 205.388L161.333 165.955L161.343 165.902C161.349 165.85 161.359 165.798 161.375 165.751C161.427 165.626 161.562 165.574 161.693 165.522L161.755 165.496C163.16 164.896 164.403 163.972 165.381 162.799C165.506 162.653 165.657 162.512 165.85 162.486C165.9 162.478 165.951 162.478 166.001 162.486L192.394 167.911L192.4 167.905ZM146.983 213.322L142.758 217.547L96.0487 150.04C96.0318 150.016 96.0144 149.991 95.9965 149.967C95.9235 149.868 95.8453 149.769 95.8609 149.654C95.8661 149.571 95.9183 149.498 95.9757 149.435L96.0278 149.368C96.1687 149.159 96.2886 148.95 96.419 148.726L96.5234 148.543L96.539 148.528C96.612 148.403 96.6798 148.283 96.805 148.215C96.9146 148.163 97.0658 148.184 97.1858 148.21L148.934 158.882C149.079 158.904 149.215 158.963 149.331 159.054C149.399 159.122 149.414 159.195 149.43 159.278C149.791 160.644 150.463 161.908 151.393 162.971C152.323 164.034 153.486 164.868 154.792 165.407C154.938 165.48 154.875 165.642 154.808 165.814C154.774 165.889 154.748 165.968 154.729 166.049C154.077 170.013 148.486 204.115 146.983 213.322ZM138.158 222.142C135.044 225.225 133.208 226.857 131.132 227.515C129.085 228.162 126.888 228.162 124.841 227.515C122.411 226.743 120.309 224.646 116.11 220.442L69.2016 173.534L81.4542 154.531C81.5115 154.438 81.5689 154.354 81.6628 154.286C81.7932 154.192 81.981 154.234 82.1375 154.286C84.9498 155.135 87.9692 154.982 90.6814 153.853C90.8222 153.801 90.963 153.765 91.0726 153.864C91.1273 153.914 91.1763 153.97 91.2186 154.031L138.158 222.147V222.142ZM64.6793 169.011L53.9186 158.251L75.1688 149.185C75.2231 149.161 75.2817 149.149 75.3409 149.149C75.5183 149.149 75.6226 149.326 75.7165 149.488C75.9301 149.816 76.1563 150.136 76.3946 150.447L76.4624 150.531C76.525 150.619 76.4833 150.708 76.4207 150.792L64.6845 169.011H64.6793ZM49.1563 153.488L35.5424 139.874C33.2265 137.558 31.5469 135.879 30.3785 134.434L71.7732 143.02C71.8252 143.029 71.8773 143.038 71.9296 143.046C72.1852 143.087 72.4669 143.134 72.4669 143.374C72.4669 143.635 72.1591 143.755 71.8983 143.854L71.7784 143.906L49.1563 153.488ZM28 127.434C28.0472 126.557 28.2049 125.69 28.4694 124.852C29.2414 122.421 31.3383 120.325 35.5424 116.12L52.9641 98.6988C60.9855 110.34 69.0287 121.967 77.0935 133.579C77.2344 133.766 77.3908 133.975 77.2292 134.131C76.4676 134.971 75.7061 135.889 75.1688 136.886C75.1105 137.014 75.0208 137.125 74.908 137.209C74.8402 137.251 74.7672 137.235 74.6889 137.219H74.6785L28 127.429V127.434ZM57.6272 94.0356L81.0525 70.6103C83.2537 71.5753 91.2656 74.9605 98.4324 77.9858C103.857 80.2809 108.802 82.3673 110.356 83.0454C110.513 83.108 110.654 83.1706 110.721 83.3271C110.763 83.421 110.742 83.5409 110.721 83.64C110.351 85.331 110.406 87.0875 110.882 88.7518C111.358 90.4162 112.24 91.9361 113.449 93.175C113.606 93.3315 113.449 93.5558 113.314 93.7488L113.241 93.8583L89.4556 130.699C89.393 130.804 89.3356 130.892 89.2313 130.96C89.1061 131.038 88.9288 131.002 88.7827 130.965C87.8576 130.723 86.9066 130.593 85.9504 130.579C85.095 130.579 84.1665 130.736 83.2276 130.908H83.2224C83.1181 130.924 83.0242 130.944 82.9407 130.882C82.8486 130.807 82.7693 130.717 82.706 130.616L57.6272 94.0356V94.0356ZM85.7835 65.8794L116.11 35.5532C120.309 31.3543 122.411 29.2522 124.841 28.4854C126.888 27.8382 129.085 27.8382 131.132 28.4854C133.563 29.2522 135.665 31.3543 139.864 35.5532L146.436 42.1254L124.867 75.5291C124.814 75.6263 124.741 75.7115 124.654 75.7794C124.523 75.8681 124.341 75.8316 124.184 75.7794C122.484 75.2634 120.683 75.1694 118.938 75.5057C117.193 75.842 115.556 76.5983 114.169 77.7094C114.028 77.8554 113.82 77.772 113.642 77.6937C110.826 76.468 88.9183 67.2095 85.7835 65.8794V65.8794ZM151.016 46.7051L170.93 66.62L166.132 96.3411V96.4194C166.127 96.4871 166.113 96.5539 166.09 96.6176C166.038 96.7219 165.933 96.7428 165.829 96.7741C164.803 97.0849 163.837 97.5662 162.971 98.1981C162.933 98.2246 162.899 98.2543 162.866 98.2867C162.809 98.3493 162.752 98.4067 162.658 98.4171C162.581 98.4195 162.505 98.4071 162.433 98.3806L132.086 85.4865L132.029 85.4604C131.836 85.3822 131.607 85.2883 131.607 85.0901C131.428 83.399 130.876 81.7687 129.99 80.3174C129.844 80.0775 129.682 79.8271 129.807 79.5819L151.016 46.7051V46.7051ZM130.506 91.5945L158.954 103.644C159.111 103.717 159.283 103.784 159.351 103.946C159.378 104.043 159.378 104.146 159.351 104.243C159.267 104.661 159.194 105.135 159.194 105.615V106.413C159.194 106.612 158.991 106.695 158.803 106.773L158.746 106.794C154.239 108.719 95.4749 133.777 95.3862 133.777C95.2976 133.777 95.2037 133.777 95.115 133.688C94.9585 133.532 95.115 133.313 95.2558 133.114C95.2807 133.08 95.3051 133.045 95.3289 133.01L118.707 96.8106L118.749 96.748C118.885 96.5289 119.041 96.2838 119.291 96.2838L119.526 96.3203C120.058 96.3933 120.528 96.4611 121.002 96.4611C124.549 96.4611 127.835 94.7346 129.817 91.7823C129.865 91.7035 129.925 91.633 129.995 91.5737C130.136 91.4693 130.344 91.5215 130.506 91.5945V91.5945ZM97.9265 139.504L161.98 112.188C161.98 112.188 162.074 112.188 162.162 112.276C162.512 112.626 162.809 112.86 163.096 113.079L163.237 113.168C163.367 113.241 163.498 113.325 163.508 113.46C163.508 113.512 163.508 113.544 163.498 113.591L158.01 147.297L157.989 147.432C157.953 147.693 157.916 147.991 157.671 147.991C156.208 148.089 154.791 148.543 153.544 149.313C152.296 150.083 151.254 151.145 150.51 152.409L150.483 152.45C150.41 152.57 150.343 152.685 150.223 152.748C150.113 152.8 149.972 152.779 149.858 152.753L98.7767 142.216C98.7245 142.206 97.9838 139.509 97.9265 139.504V139.504Z" fill="url(#paint0_radial_267_114)"/>
<defs>
<radialGradient id="paint0_radial_267_114" cx="0" cy="0" r="1" gradientUnits="userSpaceOnUse" gradientTransform="translate(21.2925 125.178) rotate(90) scale(199.78 230.653)">
<stop stop-color="#20C6B7"/>
<stop offset="1" stop-color="#4D9ABF"/>
</radialGradient>
</defs>
</svg>

<svg xmlns="http://www.w3.org/2000/svg" width="256" height="256" fill="none" viewBox="0 0 256 256"><rect width="256" height="256" fill="#F4F2ED" rx="60"/><path fill="url(#a)" d="m172.79 97.4-.08-.03-.12-.06a.6.6 0 0 1-.14-.49l4.03-24.65 18.9 18.91-19.66 8.37-.17.03h-.08l-.1-.09a9 9 0 0 0-2.58-1.98m27.42-1.5 20.22 20.22c4.2 4.2 6.3 6.3 7.07 8.73q.16.53.28 1.1l-48.32-20.47-.07-.03c-.2-.08-.42-.17-.42-.37s.23-.29.42-.37l.06-.02zm26.75 36.53c-1.05 1.96-3.08 4-6.52 7.44l-22.8 22.8-29.48-6.15-.16-.03c-.26-.04-.53-.09-.53-.32a9 9 0 0 0-3.42-6.22c-.12-.12-.09-.31-.05-.48v-.08l5.55-34.04.02-.11c.04-.26.08-.56.32-.56a9 9 0 0 0 6.05-3.47q.06-.08.14-.14c.17-.08.36 0 .54.07zM192.4 167.9l-37.48 37.49 6.41-39.43.01-.06.03-.15c.06-.12.2-.18.32-.23l.06-.02a10 10 0 0 0 3.63-2.7c.13-.15.28-.29.47-.31h.15zm-45.42 45.42-4.22 4.23-46.71-67.51-.05-.07q-.14-.15-.14-.32.01-.12.12-.22l.05-.06.39-.64.1-.19.02-.01q.09-.2.27-.31c.1-.06.26-.04.38-.01l51.74 10.67q.22.03.4.17.09.1.1.23a9.2 9.2 0 0 0 5.36 6.13c.15.07.09.23.02.4q-.06.12-.08.24zm-8.82 8.82c-3.12 3.09-4.95 4.72-7.03 5.38-2.04.64-4.24.64-6.29 0-2.43-.78-4.53-2.87-8.73-7.08l-46.9-46.9 12.24-19a1 1 0 0 1 .21-.25c.13-.1.32-.06.48 0 2.81.84 5.83.7 8.54-.44.14-.05.28-.09.4.01l.14.17zm-73.48-53.13-10.76-10.76 21.25-9.06.17-.04c.18 0 .28.18.38.34q.32.5.67.96l.07.08c.07.09.02.18-.04.26zM49.16 153.5l-13.62-13.62c-2.31-2.31-4-4-5.16-5.44l41.4 8.59.15.03c.26.04.54.08.54.32 0 .26-.31.38-.57.48l-.12.06zM28 127.43q.07-1.31.47-2.58c.77-2.43 2.87-4.52 7.07-8.73L52.96 98.7Q65 116.16 77.1 133.58c.14.19.3.4.14.55-.76.84-1.52 1.76-2.06 2.76a1 1 0 0 1-.26.32q-.1.05-.22 0h-.01zm29.63-33.4 23.42-23.42c2.2.97 10.22 4.35 17.38 7.38 5.43 2.3 10.37 4.38 11.93 5.06.15.06.3.12.36.28q.05.15 0 .31a10.5 10.5 0 0 0 2.73 9.53c.16.16 0 .39-.14.58l-.07.1-23.78 36.85q-.08.16-.23.26c-.12.08-.3.04-.45 0q-1.38-.36-2.83-.38c-.86 0-1.78.16-2.72.33-.11.01-.2.03-.29-.03q-.14-.1-.23-.26zm28.15-28.15 30.33-30.33c4.2-4.2 6.3-6.3 8.73-7.06 2.05-.65 4.25-.65 6.3 0 2.42.76 4.53 2.86 8.72 7.06l6.58 6.58-21.57 33.4a1 1 0 0 1-.22.25c-.13.09-.3.05-.47 0a11 11 0 0 0-10.01 1.93c-.14.15-.35.06-.53-.02-2.81-1.22-24.72-10.48-27.86-11.81m65.24-19.17 19.91 19.91-4.8 29.72v.08q0 .1-.04.2c-.05.1-.16.12-.26.15a10 10 0 0 0-3.17 1.65l-.23-.04-30.34-12.9-.06-.02c-.2-.08-.42-.17-.42-.37-.18-1.7-.73-3.32-1.62-4.77-.15-.24-.3-.5-.18-.74zM130.5 91.59l28.44 12.05c.16.08.33.14.4.3q.05.15 0 .3-.14.65-.16 1.38v.8c0 .2-.2.27-.39.35l-.05.02a39932 39932 0 0 1-63.36 26.99c-.1 0-.19 0-.28-.1-.15-.15 0-.37.15-.57l.07-.1 23.38-36.2.04-.06c.14-.22.3-.47.54-.47l.24.04q.78.12 1.47.14c3.55 0 6.83-1.73 8.82-4.68q.07-.12.18-.2c.14-.11.34-.06.5.01M97.93 139.5l64.05-27.31s.1 0 .18.09c.35.35.65.58.94.8l.14.09c.13.07.26.16.27.29l-.01.13-5.49 33.7-.02.14c-.04.26-.07.56-.32.56a9 9 0 0 0-7.16 4.42l-.03.04q-.1.2-.26.3c-.1.05-.25.03-.36 0l-51.08-10.53c-.06-.01-.8-2.71-.85-2.72"/><defs><radialGradient id="a" cx="0" cy="0" r="1" gradientTransform="matrix(0 199.78 -230.653 0 21.3 125.18)" gradientUnits="userSpaceOnUse"><stop stop-color="#20C6B7"/><stop offset="1" stop-color="#4D9ABF"/></radialGradient></defs></svg>
